X: 072
M: C|
L: 1/8
K: Em
V: 1
|:\
|:\
e(gTfe) B/B/B eB | defe d/d/d fd |\
e(gTfe) dBAF | GBAF E/E/E E2 :|
V: 2 clef=bass middle=d
|:\
e2e2 e2e2 | d2d2 d2d2 |\
e2e2 e2e2 | B2B2 E2E2 :|\
|: e2e2
e2e2 | d2d2 d2d2 |\
e2e2 d2d2 | e2B2 E2E2 :|

